<?xml version="1.0" encoding="UTF-8"?>
<map version="1.10" tiledversion="1.12.1" orientation="orthogonal" renderorder="right-down" width="30" height="15" tilewidth="32" tileheight="32" infinite="0" nextlayerid="11" nextobjectid="14">
 <tileset firstgid="1" source="../tilesets/tiny-dungeon.tsx"/>
 <tileset firstgid="133" source="../tilesets/realm-tiles.tsx"/>
 <layer id="8" name="ground" width="30" height="15" visible="0">
  <data encoding="csv">
49,49,49,49,49,49,49,134,134,134,134,49,49,49,49,49,49,49,49,49,49,49,49,49,134,134,134,134,49,49,
134,134,134,134,134,134,134,134,134,134,134,134,134,134,49,49,49,49,134,134,134,134,134,134,134,134,134,134,134,134,
134,134,134,138,138,134,134,134,134,134,134,134,134,134,134,134,134,134,134,134,134,134,134,134,134,134,134,134,134,134,
134,134,134,138,138,134,134,134,134,134,134,134,134,134,134,134,134,134,134,134,134,134,134,134,134,134,134,134,134,134,
134,134,134,138,138,134,134,134,134,134,134,134,134,134,134,134,134,134,134,134,134,134,134,134,134,134,134,134,134,134,
134,134,134,138,138,134,134,134,134,134,134,134,134,134,134,134,134,134,134,134,134,134,134,134,134,134,134,134,134,135,
135,135,135,135,135,135,135,135,135,135,135,135,135,135,135,135,135,135,135,135,135,135,135,135,135,135,135,135,135,135,
135,135,135,135,135,135,135,135,135,135,135,135,135,135,135,135,135,134,134,134,134,135,135,135,135,135,135,135,135,135,
135,138,138,138,138,138,135,135,135,135,135,135,135,135,135,135,134,134,134,134,134,134,134,135,135,135,135,135,135,135,
135,138,138,138,138,138,135,135,135,135,135,135,135,137,137,134,136,136,134,134,134,134,134,135,135,135,135,135,135,135,
135,138,138,138,138,138,135,135,135,135,135,135,135,137,137,134,136,136,134,134,134,134,134,135,135,135,135,135,135,135,
135,138,138,138,138,138,135,135,135,135,135,135,135,135,135,135,134,134,134,134,134,134,134,135,135,135,135,135,135,135,
135,135,135,135,135,135,135,135,135,135,135,135,135,135,135,135,135,134,134,134,134,135,135,135,135,135,135,135,135,135,
135,135,133,133,135,135,135,135,135,135,135,135,135,135,135,135,135,135,135,135,135,135,135,135,135,135,135,135,135,135,
0,0,0,0,0,0,0,0,0,0,0,0,0,0,0,0,0,0,0,0,0,0,0,0,0,0,0,0,0,0
</data>
 </layer>
 <layer id="5" name="decor" width="30" height="15" visible="0">
  <data encoding="csv">
0,0,0,0,0,0,0,0,0,0,0,0,0,0,0,0,0,0,0,0,0,0,0,0,0,0,0,0,0,0,
0,0,0,0,0,0,0,0,0,0,0,0,0,0,0,0,0,0,0,0,0,0,0,0,0,0,0,0,0,0,
0,0,0,0,0,0,0,0,0,0,0,0,0,0,0,0,0,0,0,0,0,0,0,0,0,0,0,0,0,0,
0,0,0,0,0,0,0,0,0,0,0,0,0,0,0,0,0,0,0,0,0,0,0,0,0,0,0,0,0,0,
0,0,0,0,0,0,0,0,0,0,0,0,0,0,0,0,0,0,0,0,0,0,0,0,0,0,0,0,0,0,
0,0,0,0,0,0,0,0,0,0,0,0,0,0,0,0,0,0,0,0,0,0,0,0,0,0,0,0,0,0,
0,0,0,0,0,0,0,0,0,0,0,0,0,0,0,0,0,0,0,0,0,0,0,0,0,0,0,0,0,0,
0,0,0,0,0,0,0,0,0,0,0,0,0,0,0,87,0,0,0,0,0,0,0,0,0,0,0,0,0,0,
0,0,0,0,0,0,0,0,0,0,0,0,0,0,0,0,0,0,0,0,0,0,0,0,0,0,0,0,0,0,
0,0,0,0,0,0,0,0,0,0,0,0,0,0,0,0,0,0,0,0,0,0,0,0,0,0,0,0,0,0,
0,0,0,0,0,0,0,0,0,0,0,0,0,0,0,0,0,0,0,0,0,0,0,0,0,0,0,0,0,0,
0,0,0,0,0,0,0,0,0,0,0,0,0,0,0,0,0,0,0,0,0,0,0,0,0,0,0,0,0,0,
0,0,0,0,0,0,0,0,0,0,0,0,0,0,0,0,0,0,0,0,0,0,0,0,0,0,0,0,0,0,
0,0,0,0,0,0,0,0,0,0,0,0,0,0,0,0,0,0,0,0,0,0,0,0,0,0,0,0,0,0,
0,0,0,0,0,0,0,0,0,0,0,0,0,0,0,0,0,0,0,0,0,0,0,0,0,0,0,0,0,0
</data>
 </layer>
 <layer id="4" name="wall" width="30" height="15">
  <data encoding="csv">
1,1,1,1,1,1,1,1,1,1,1,1,1,1,0,0,1,1,1,1,1,1,1,1,1,1,1,1,1,1,
1,1,1,1,1,1,1,1,1,1,1,1,1,1,0,0,1,1,1,1,1,1,1,1,1,1,1,1,1,1,
1,1,1,1,1,1,1,1,1,1,1,1,1,1,0,0,1,1,1,1,1,1,1,1,1,1,1,1,1,1,
1,1,1,1,1,1,1,1,1,1,1,1,0,0,0,0,0,1,1,0,0,0,0,0,0,0,0,0,0,0,
1,1,1,1,1,1,1,1,1,1,0,0,0,0,0,0,0,0,0,0,0,0,0,0,0,0,0,0,0,0,
1,1,1,1,1,1,1,1,1,1,0,0,0,0,0,0,0,0,0,0,0,0,0,0,0,0,0,1,1,1,
1,1,1,1,1,1,1,1,1,1,1,0,0,0,0,0,0,0,0,0,0,0,0,0,0,0,0,1,1,1,
1,1,1,1,1,1,1,1,1,1,1,0,0,0,0,0,0,0,0,0,0,0,0,0,0,0,0,1,1,1,
1,1,1,0,0,0,1,1,1,1,1,0,0,0,0,0,0,0,0,0,0,0,0,0,0,0,0,0,1,1,
1,1,1,0,0,0,1,1,1,1,1,0,0,0,0,0,0,0,0,0,0,0,0,0,0,0,0,0,1,1,
1,1,1,0,0,0,0,0,0,0,0,0,0,0,0,0,0,0,0,0,0,0,0,0,0,0,0,1,1,1,
1,1,1,1,1,0,0,0,0,0,0,0,0,0,0,0,0,0,0,0,0,0,0,0,0,0,1,1,1,1,
1,1,1,1,1,1,1,0,0,0,0,0,0,0,0,0,0,0,0,0,0,0,0,0,0,1,1,1,1,1,
1,1,1,1,1,1,1,0,0,0,0,0,0,0,0,0,0,0,0,0,0,0,0,0,0,0,1,1,1,1,
1,1,1,1,1,1,1,1,1,1,1,1,1,1,1,1,1,1,1,1,1,1,1,1,1,1,1,1,1,1
</data>
 </layer>
 <imagelayer id="10" name="view" offsetx="-13.9822" offsety="-11.8085">
  <image source="../map_bg/forge.jpg" width="1000" height="500"/>
 </imagelayer>
 <objectgroup id="3" name="objects">
  <object id="2" name="spawn-south" type="spawn" x="440.004" y="314.132" width="60.3015" height="35.5462">
   <properties>
    <property name="direction" value="south"/>
   </properties>
  </object>
  <object id="7" name="spawn-default" type="spawn" x="569.27" y="190.599" width="57.7625" height="63.4753">
   <properties>
    <property name="direction" value="default"/>
   </properties>
  </object>
  <object id="13" x="127.59" y="256.702" width="63.7979" height="63.5462">
   <properties>
    <property name="npcId" value="merchant"/>
    <property name="type" value="npc"/>
   </properties>
  </object>
  <object id="12" name="exit-to-armory" type="exit" x="442.344" y="15.7837" width="64.7802" height="63.032">
   <properties>
    <property name="direction" value="north"/>
    <property name="targetRoomId" value="armory"/>
   </properties>
  </object>
 </objectgroup>
</map>
