<?xml version="1.0" encoding="UTF-8"?>
<map version="1.10" tiledversion="1.12.1" orientation="orthogonal" renderorder="right-down" width="30" height="15" tilewidth="32" tileheight="32" infinite="0" nextlayerid="12" nextobjectid="14">
 <tileset firstgid="1" source="../tilesets/tiny-dungeon.tsx"/>
 <tileset firstgid="133" source="../tilesets/realm-tiles.tsx"/>
 <layer id="8" name="ground" width="30" height="15">
  <data encoding="csv">
49,49,133,133,133,133,133,133,133,133,133,133,133,133,133,133,133,133,133,133,133,133,133,133,133,133,133,133,49,49,
49,49,133,133,137,137,133,133,133,133,133,133,133,133,133,133,133,133,133,133,133,137,133,133,133,137,137,133,133,133,
49,49,133,133,137,137,133,133,133,133,133,133,133,133,133,133,133,133,133,133,133,137,133,133,133,137,137,133,133,49,
49,49,133,133,133,133,133,133,133,133,133,133,133,133,133,133,133,133,133,133,133,137,133,133,133,137,137,133,49,49,
49,49,133,133,133,133,133,133,133,133,133,133,133,133,133,133,133,133,133,133,133,137,133,133,133,133,133,133,49,49,
49,49,133,137,137,133,133,133,133,133,133,133,133,133,133,133,133,133,133,133,133,133,133,133,133,133,133,133,49,49,
49,49,133,133,133,133,133,133,133,133,133,133,134,134,134,134,134,134,133,133,133,133,133,133,133,133,133,133,49,49,
49,49,133,133,133,133,133,133,133,133,133,134,134,134,135,135,134,134,134,134,134,134,134,134,134,134,134,134,134,134,
134,134,134,134,134,134,134,134,134,134,134,134,134,134,136,136,134,134,134,134,134,134,134,134,134,134,134,134,134,134,
134,134,134,134,134,134,134,134,134,134,134,134,134,134,136,136,134,134,134,134,134,134,134,134,134,134,134,134,134,134,
134,134,134,134,134,134,134,134,134,134,134,134,134,134,135,135,135,134,134,134,133,133,133,133,133,133,133,133,49,49,
49,49,133,133,133,133,133,133,133,133,133,133,134,134,134,134,134,134,134,133,133,133,133,133,133,137,137,133,133,49,
49,49,133,133,137,137,133,133,133,133,133,133,133,134,134,134,134,134,133,133,133,133,133,133,133,137,137,133,49,49,
49,49,133,133,137,137,133,133,133,133,133,133,133,133,134,134,134,133,133,133,133,133,133,133,133,133,133,133,49,49,
49,49,133,133,133,133,133,133,133,133,133,133,133,133,134,134,134,133,133,133,133,133,133,133,133,133,133,133,49,49
</data>
 </layer>
 <layer id="5" name="decor" width="30" height="15">
  <data encoding="csv">
0,0,0,0,0,0,0,0,0,0,0,0,0,0,0,0,0,0,0,0,0,0,0,0,0,0,0,0,0,0,
0,0,0,0,0,0,0,0,0,0,0,0,0,0,0,0,0,0,0,0,0,0,0,0,0,0,0,0,0,0,
0,0,0,0,0,0,0,0,0,0,0,0,0,0,0,0,0,0,0,0,0,0,0,0,0,0,0,0,0,0,
0,0,0,0,0,0,0,0,0,0,0,0,0,0,0,0,0,0,0,0,0,0,0,0,0,0,0,0,0,0,
0,0,0,0,0,0,0,0,0,0,0,0,0,0,0,0,0,0,0,0,0,0,0,0,0,0,0,0,0,0,
0,0,0,0,0,0,0,0,0,0,0,0,0,0,0,0,0,0,0,0,0,0,0,0,0,0,0,0,0,0,
0,0,0,0,0,0,0,0,0,0,0,0,0,0,0,0,0,0,0,0,0,0,0,0,0,0,0,0,0,0,
0,0,0,0,0,0,0,0,0,0,0,0,0,0,0,0,0,0,0,0,0,0,0,0,0,0,0,0,0,0,
0,0,0,0,0,0,0,0,0,0,0,0,0,0,0,0,0,0,0,0,0,0,0,0,0,0,0,0,0,0,
0,0,0,0,0,0,0,0,0,0,0,0,0,0,0,0,0,0,0,0,0,0,0,0,0,0,0,0,0,0,
0,0,0,0,0,0,0,0,0,0,0,0,0,0,0,0,0,0,0,0,0,0,0,0,0,0,0,0,0,0,
0,0,0,0,0,0,0,0,0,0,0,0,0,0,0,0,0,0,0,0,0,0,0,0,0,0,0,0,0,0,
0,0,0,0,0,0,0,0,0,0,0,0,0,0,0,0,0,0,0,0,0,0,0,0,0,0,0,0,0,0,
0,0,0,0,0,0,0,0,0,0,0,0,0,0,0,0,0,0,0,0,0,0,0,0,0,0,0,0,0,0,
0,0,0,0,0,0,0,0,0,0,0,0,0,0,0,0,0,0,0,0,0,0,0,0,0,0,0,0,0,0
</data>
 </layer>
 <layer id="4" name="wall" width="30" height="15">
  <data encoding="csv">
1,14,0,0,0,0,0,0,0,0,0,0,0,0,0,0,0,0,0,0,0,0,0,0,0,0,0,0,16,1,
1,14,0,0,0,0,0,0,0,0,0,0,0,0,0,0,0,0,0,0,0,0,0,0,0,0,0,0,16,1,
1,14,0,0,0,0,0,0,0,0,0,0,0,0,0,0,0,0,0,0,0,0,0,0,0,0,0,0,16,1,
1,14,0,0,0,0,0,0,0,0,0,0,0,0,0,0,0,0,0,0,0,0,0,0,0,0,0,0,16,1,
1,14,0,0,0,0,0,0,0,0,0,0,0,0,0,0,0,0,0,0,0,0,0,0,0,0,0,0,16,1,
1,14,0,0,0,0,0,0,0,0,0,0,0,0,0,0,0,0,0,0,0,0,0,0,0,0,0,0,16,1,
1,14,0,0,0,0,0,0,0,0,0,0,0,0,0,0,0,0,0,0,0,0,0,0,0,0,0,0,17,3,
3,18,0,0,0,0,0,0,0,0,0,0,0,0,0,0,0,0,0,0,0,0,0,0,0,0,0,0,0,0,
0,0,0,0,0,0,0,0,0,0,0,0,0,0,0,0,0,0,0,0,0,0,0,0,0,0,0,0,0,0,
0,0,0,0,0,0,0,0,0,0,0,0,0,0,0,0,0,0,0,0,0,0,0,0,0,0,0,0,0,0,
0,0,0,0,0,0,0,0,0,0,0,0,0,0,0,0,0,0,0,0,0,0,0,0,0,0,0,0,5,27,
27,6,0,0,0,0,0,0,0,0,0,0,0,0,0,0,0,0,0,0,0,0,0,0,0,0,0,0,16,1,
1,14,0,0,0,0,0,0,0,0,0,0,0,0,0,0,0,0,0,0,0,0,0,0,0,0,0,0,16,1,
1,14,0,0,0,0,0,0,0,0,0,0,0,0,0,0,0,0,0,0,0,0,0,0,0,0,0,0,16,1,
1,14,0,0,0,0,0,0,0,0,0,0,0,0,0,0,0,0,0,0,0,0,0,0,0,0,0,0,16,1
</data>
 </layer>
 <imagelayer id="11" name="view">
  <image source="../map_bg/garden.png" width="1000" height="500"/>
 </imagelayer>
 <objectgroup id="3" name="objects">
  <object id="1" name="spawn-north" type="spawn" x="470.584" y="118.685" width="63.4753" height="36.1809">
   <properties>
    <property name="direction" value="north"/>
   </properties>
  </object>
  <object id="13" x="383.574" y="401.32" width="37.6721" height="23.5793">
   <properties>
    <property name="npcId" value="guard"/>
    <property name="type" value="npc"/>
   </properties>
  </object>
  <object id="2" name="spawn-south" type="spawn" x="482.433" y="380.663" width="60.3015" height="35.5462">
   <properties>
    <property name="direction" value="south"/>
   </properties>
  </object>
  <object id="3" name="spawn-west" type="spawn" x="126.531" y="235.912" width="53.954" height="67.2838">
   <properties>
    <property name="direction" value="west"/>
   </properties>
  </object>
  <object id="4" name="spawn-east" type="spawn" x="869.621" y="224.588" width="34.9114" height="79.9788">
   <properties>
    <property name="direction" value="east"/>
   </properties>
  </object>
  <object id="7" name="spawn-default" type="spawn" x="359.27" y="253.266" width="57.7625" height="63.4753">
   <properties>
    <property name="direction" value="default"/>
   </properties>
  </object>
  <object id="10" name="exit-to-armory" type="exit" x="925.237" y="226.597" width="35.5462" height="74.9008">
   <properties>
    <property name="direction" value="east"/>
    <property name="targetRoomId" value="armory"/>
   </properties>
  </object>
  <object id="11" name="exit-to-guard-room" type="exit" x="470.709" y="426.434" width="81.5921" height="42.1576">
   <properties>
    <property name="direction" value="south"/>
    <property name="targetRoomId" value="guard-room"/>
   </properties>
  </object>
  <object id="12" name="exit-to-pub" type="exit" x="50.8224" y="236.478" width="50.7802" height="59.032">
   <properties>
    <property name="direction" value="west"/>
    <property name="targetRoomId" value="pub"/>
   </properties>
  </object>
 </objectgroup>
</map>
