<?xml version="1.0" encoding="UTF-8"?>
<map version="1.10" tiledversion="1.12.1" orientation="orthogonal" renderorder="right-down" width="30" height="17" tilewidth="32" tileheight="32" infinite="0" nextlayerid="10" nextobjectid="14">
 <tileset firstgid="1" source="../tilesets/tiny-dungeon.tsx"/>
 <tileset firstgid="133" source="../tilesets/realm-tiles.tsx"/>
 <layer id="8" name="ground" width="30" height="17">
  <data encoding="csv">
134,134,134,134,134,134,134,134,134,134,134,138,138,138,138,138,138,138,134,134,134,134,134,134,134,134,134,134,134,134,
134,134,134,134,134,134,134,134,134,134,134,138,138,136,133,136,138,138,134,134,134,134,134,134,134,134,134,134,134,134,
134,134,134,134,134,134,134,134,134,134,134,138,138,136,133,136,138,138,134,134,134,134,134,134,134,134,134,134,134,134,
134,134,134,134,134,134,134,134,134,134,134,138,138,136,136,136,138,138,134,134,134,134,134,134,134,134,134,134,134,134,
134,134,134,134,134,134,134,134,134,134,134,138,138,138,138,138,138,138,134,134,134,134,134,134,134,134,134,134,134,134,
134,134,134,134,134,134,134,134,134,134,134,134,138,138,138,138,138,134,134,134,134,134,134,134,134,134,134,134,134,134,
134,134,134,134,137,137,134,134,134,134,134,134,134,134,134,134,134,134,134,134,137,137,134,134,134,134,134,134,134,134,
134,134,134,134,137,137,134,134,134,134,134,134,134,134,134,134,134,134,134,134,137,137,134,134,134,134,134,134,134,134,
134,134,134,134,135,135,137,137,134,134,134,134,134,134,134,134,134,134,137,137,135,135,134,134,134,134,134,134,134,134,
134,134,134,134,135,135,137,137,134,134,134,134,134,134,134,134,134,134,137,137,135,135,134,134,134,134,134,134,134,134,
134,134,134,134,134,137,137,134,134,134,134,134,134,134,134,134,134,134,134,137,137,134,134,134,134,134,134,134,134,134,
134,134,134,134,134,137,137,134,134,134,134,134,134,134,134,134,134,134,134,137,137,134,134,134,134,134,134,134,134,134,
134,134,134,134,134,137,137,134,134,134,134,134,134,134,134,134,134,134,134,137,137,134,134,134,134,134,134,134,134,134,
134,134,134,134,134,134,134,134,134,134,134,134,134,134,134,134,134,134,134,134,134,134,134,134,134,134,134,134,134,134,
134,134,134,134,134,134,134,134,134,134,134,134,134,134,134,134,134,134,134,134,134,134,134,134,134,134,134,134,134,134,
134,134,134,134,134,134,134,134,134,134,134,134,134,134,134,134,134,134,134,134,134,134,134,134,134,134,134,134,134,134,
49,49,49,49,49,49,49,49,49,49,134,134,134,134,134,134,134,134,134,134,134,134,134,134,49,49,49,49,49,49
</data>
 </layer>
 <layer id="5" name="decor" width="30" height="17">
  <data encoding="csv">
0,0,0,0,0,0,0,0,0,0,0,0,0,0,0,0,0,0,0,0,0,0,0,0,0,0,0,0,0,0,
0,0,0,0,0,0,0,0,0,0,0,0,0,0,0,0,0,0,0,0,0,0,0,0,0,0,0,0,0,0,
0,0,0,0,0,0,0,0,0,0,0,0,0,0,0,0,0,0,0,0,0,0,0,0,0,0,0,0,0,0,
0,0,0,0,0,0,0,0,0,0,0,0,0,0,0,0,0,0,0,0,0,0,0,0,0,0,0,0,0,0,
0,0,0,0,0,0,0,0,0,0,0,0,0,0,0,0,0,0,0,0,0,0,0,0,0,0,0,0,0,0,
0,0,0,0,0,0,0,0,0,0,0,0,0,0,0,0,0,0,0,0,0,0,0,0,0,0,0,0,0,0,
0,0,0,0,0,0,0,0,0,0,0,0,0,0,0,0,0,0,0,0,0,0,0,0,0,0,0,0,0,0,
0,0,0,0,0,0,0,0,0,0,0,0,0,0,0,85,0,0,0,0,0,0,0,0,0,0,0,0,0,0,
0,0,0,0,0,0,0,0,0,0,0,0,0,0,0,0,0,0,0,0,0,0,0,0,0,0,0,0,0,0,
0,0,0,0,0,0,0,0,0,0,0,0,0,0,0,0,0,0,0,0,0,0,0,0,0,0,0,0,0,0,
0,0,0,0,0,0,0,0,0,0,0,0,0,0,0,0,0,0,0,0,0,0,0,0,0,0,0,0,0,0,
0,0,0,0,0,0,0,0,0,0,0,0,0,0,0,0,0,0,0,0,0,0,0,0,0,0,0,0,0,0,
0,0,0,0,0,0,0,0,0,0,0,0,0,0,0,0,0,0,0,0,0,0,0,0,0,0,0,0,0,0,
0,0,0,0,0,0,0,0,0,0,0,0,0,0,0,0,0,0,0,0,0,0,0,0,0,0,0,0,0,0,
0,0,0,0,0,0,0,0,0,0,0,0,0,0,0,0,0,0,0,0,0,0,0,0,0,0,0,0,0,0,
0,0,0,0,0,0,0,0,0,0,0,0,0,0,0,0,0,0,0,0,0,0,0,0,0,0,0,0,0,0,
0,0,0,0,0,0,0,0,0,0,0,0,0,0,0,0,0,0,0,0,0,0,0,0,0,0,0,0,0,0
</data>
 </layer>
 <layer id="4" name="wall" width="30" height="17">
  <data encoding="csv">
0,0,0,0,0,0,0,0,0,0,0,0,0,0,0,0,0,0,0,0,0,0,0,0,0,0,0,0,0,0,
0,0,0,0,0,0,0,0,0,0,0,0,0,0,0,0,0,0,0,0,0,0,0,0,0,0,0,0,0,0,
0,0,0,0,0,0,0,0,0,0,0,0,0,0,0,0,0,0,0,0,0,0,0,0,0,0,0,0,0,0,
0,0,0,0,0,0,0,0,0,0,0,0,0,0,0,0,0,0,0,0,0,0,0,0,0,0,0,0,0,0,
0,0,0,0,0,0,0,0,0,0,0,0,0,0,0,0,0,0,0,0,0,0,0,0,0,0,0,0,0,0,
0,0,0,0,0,0,0,0,0,0,0,0,0,0,0,0,0,0,0,0,0,0,0,0,0,0,0,0,0,0,
0,0,0,0,0,0,0,0,0,0,0,0,0,0,0,0,0,0,0,0,0,0,0,0,0,0,0,0,0,0,
0,0,0,0,0,0,0,0,0,0,0,0,0,0,0,0,0,0,0,0,0,0,0,0,0,0,0,0,0,0,
0,0,0,0,0,0,0,0,0,0,0,0,0,0,0,0,0,0,0,0,0,0,0,0,0,0,0,0,0,0,
0,0,0,0,0,0,0,0,0,0,0,0,0,0,0,0,0,0,0,0,0,0,0,0,0,0,0,0,0,0,
0,0,0,0,0,0,0,0,0,0,0,0,0,0,0,0,0,0,0,0,0,0,0,0,0,0,0,0,0,0,
0,0,0,0,0,0,0,0,0,0,0,0,0,0,0,0,0,0,0,0,0,0,0,0,0,0,0,0,0,0,
0,0,0,0,0,0,0,0,0,0,0,0,0,0,0,0,0,0,0,0,0,0,0,0,0,0,0,0,0,0,
0,0,0,0,0,0,0,0,0,0,0,0,0,0,0,0,0,0,0,0,0,0,0,0,0,0,0,0,0,0,
0,0,0,0,0,0,0,0,0,0,0,0,0,0,0,0,0,0,0,0,0,0,0,0,0,0,0,0,0,0,
0,0,0,0,0,0,0,0,0,0,0,0,0,7,0,0,0,7,0,0,0,0,0,0,0,0,0,0,0,0,
27,27,27,27,27,27,27,27,27,27,27,27,27,19,0,0,0,19,27,27,27,27,27,27,27,27,27,27,27,27
</data>
 </layer>
 <objectgroup id="3" name="objects">
  <object id="1" name="spawn-north" type="spawn" x="485.586" y="96.4824" width="63.4753" height="36.1809">
   <properties>
    <property name="direction" value="north"/>
   </properties>
  </object>
  <object id="7" name="spawn-default" type="spawn" x="359.27" y="253.266" width="57.7625" height="63.4753">
   <properties>
    <property name="direction" value="default"/>
   </properties>
  </object>
  <object id="13" x="475.43" y="222.798" width="41.8937" height="38.0852">
   <properties>
    <property name="npcId" value="hermit"/>
    <property name="type" value="npc"/>
   </properties>
  </object>
  <object id="11" name="exit-to-library" type="exit" x="465.908" y="512.245" width="54.5887" height="24.7554">
   <properties>
    <property name="direction" value="south"/>
    <property name="targetRoomId" value="library"/>
   </properties>
  </object>
 </objectgroup>
</map>
