<?xml version="1.0" encoding="UTF-8"?>
<map version="1.10" tiledversion="1.12.1" orientation="orthogonal" renderorder="right-down" width="30" height="15" tilewidth="32" tileheight="32" infinite="0" nextlayerid="11" nextobjectid="13">
 <tileset firstgid="1" source="../tilesets/tiny-dungeon.tsx"/>
 <tileset firstgid="133" source="../tilesets/realm-tiles.tsx"/>
 <layer id="8" name="ground" width="30" height="15">
  <data encoding="csv">
49,49,49,49,49,49,49,49,49,49,49,49,49,49,49,1,1,1,49,49,49,49,49,49,49,49,49,49,49,49,
134,134,134,134,134,134,134,134,134,134,134,134,134,134,134,135,135,134,134,134,134,134,134,134,134,134,134,134,134,134,
134,137,137,137,136,133,134,134,137,137,134,134,134,134,134,135,135,134,134,134,137,137,137,136,133,134,134,137,137,134,
134,137,137,136,136,134,134,134,137,137,134,134,134,134,134,135,135,134,134,134,137,137,136,136,134,134,134,137,137,134,
134,137,137,136,134,134,134,134,137,137,134,134,134,134,134,135,135,134,134,134,137,137,136,134,134,134,134,137,137,134,
134,137,137,136,134,134,134,134,137,137,134,134,134,134,134,135,135,134,134,134,137,137,136,134,134,134,134,137,137,134,
134,134,134,134,134,134,134,134,134,134,134,134,134,134,134,135,135,134,134,134,134,134,134,134,134,134,134,134,134,134,
134,134,134,134,134,134,134,134,134,134,134,134,134,134,134,135,135,134,134,134,134,134,134,134,134,134,134,134,134,134,
134,134,134,138,138,138,134,134,134,134,134,134,134,134,134,135,135,134,134,134,134,138,138,138,134,134,134,134,134,134,
134,134,134,138,136,136,134,134,134,134,134,134,134,134,134,135,135,134,134,134,134,136,133,136,134,134,134,134,134,134,
134,134,134,138,136,133,134,134,134,134,134,134,134,134,134,135,135,134,134,134,134,136,133,136,134,134,134,134,134,134,
134,134,134,138,136,136,134,134,134,134,134,134,134,134,134,135,135,134,134,134,134,136,136,136,134,134,134,134,134,134,
134,134,134,138,138,138,134,134,134,134,134,134,134,134,134,135,135,134,134,134,134,138,138,138,138,138,138,134,134,134,
134,134,134,134,134,134,134,134,134,134,134,134,134,134,134,135,135,134,134,134,134,134,134,134,134,134,134,134,134,134,
134,134,134,134,134,134,134,134,134,134,134,134,134,134,134,135,135,134,134,134,134,134,134,134,134,134,134,134,134,134
</data>
 </layer>
 <layer id="5" name="decor" width="30" height="15">
  <data encoding="csv">
0,0,0,0,0,0,0,0,0,0,0,0,0,0,0,0,0,0,0,0,0,0,0,0,0,0,0,0,0,0,
0,0,0,0,0,0,0,0,0,0,0,0,0,0,0,0,0,0,0,0,0,0,0,0,0,0,0,0,0,0,
0,0,0,0,0,0,0,0,0,0,0,0,0,0,0,0,0,0,0,0,0,0,0,0,0,0,0,0,0,0,
0,0,0,0,0,0,0,0,0,0,0,0,0,0,0,0,0,0,0,0,0,0,0,0,0,0,0,0,0,0,
0,0,0,0,0,0,0,0,0,0,0,0,0,0,0,0,0,0,0,0,0,0,0,0,0,0,0,0,0,0,
0,0,0,0,0,0,0,0,0,0,0,0,0,0,0,0,0,0,0,0,0,0,0,0,0,0,0,0,0,0,
0,0,0,0,0,0,0,0,0,0,0,0,0,0,0,0,0,0,0,0,0,0,0,0,0,0,0,0,0,0,
0,0,0,0,0,0,0,0,0,0,0,0,0,0,0,0,0,0,0,0,0,0,0,0,0,0,0,0,0,0,
0,0,0,0,0,0,0,0,0,0,0,0,0,0,0,0,0,0,0,0,0,0,0,0,0,0,0,0,0,0,
0,0,0,0,0,0,0,0,0,0,0,0,0,0,0,0,0,0,0,0,0,0,0,0,0,0,0,0,0,0,
0,0,0,0,0,0,0,0,0,0,0,0,0,0,0,0,0,0,0,0,0,0,0,0,0,0,0,0,0,0,
0,0,0,0,0,0,0,0,0,0,0,0,0,0,0,0,0,0,0,0,0,0,0,0,0,0,0,0,0,0,
0,0,0,0,0,0,0,0,0,0,0,0,0,0,0,0,0,0,0,0,0,80,95,95,95,95,81,0,0,0,
0,0,0,0,0,0,0,0,0,0,0,0,0,0,0,0,0,0,0,0,0,0,0,0,0,0,0,0,0,0,
0,0,0,0,0,0,0,0,0,0,0,0,0,0,0,0,0,0,0,0,0,0,0,0,0,0,0,0,0,0
</data>
 </layer>
 <layer id="4" name="wall" width="30" height="15">
  <data encoding="csv">
3,3,3,3,3,3,3,3,3,3,3,3,3,3,19,0,0,19,3,3,3,3,3,3,3,3,3,3,3,3,
0,0,0,0,0,0,0,0,0,0,0,0,0,0,31,0,0,31,0,0,0,0,0,0,0,0,0,0,0,0,
0,0,0,0,0,0,0,0,0,0,0,0,0,0,0,0,0,0,0,0,0,0,0,0,0,0,0,0,0,0,
0,0,0,0,0,0,0,0,0,0,0,0,0,0,0,0,0,0,0,0,0,0,0,0,0,0,0,0,0,0,
0,0,0,0,0,0,0,0,0,0,0,0,0,0,0,0,0,0,0,0,0,0,0,0,0,0,0,0,0,0,
0,0,0,0,0,0,0,0,0,0,0,0,0,0,0,0,0,0,0,0,0,0,0,0,0,0,0,0,0,0,
0,0,0,0,0,0,0,0,0,0,0,0,0,0,0,0,0,0,0,0,0,0,0,0,0,0,0,0,0,0,
0,0,0,0,0,0,0,0,0,0,0,0,0,0,0,0,0,0,0,0,0,0,0,0,0,0,0,0,0,0,
0,0,0,0,0,0,0,0,0,0,0,0,0,0,0,0,0,0,0,0,0,0,0,0,0,0,0,0,0,0,
0,0,0,0,0,0,0,0,0,0,0,0,0,0,0,0,0,0,0,0,0,0,0,0,0,0,0,0,0,0,
0,0,0,0,0,0,0,0,0,0,0,0,0,0,0,0,0,0,0,0,0,0,0,0,0,0,0,0,0,0,
0,0,0,0,0,0,0,0,0,0,0,0,0,0,0,0,0,0,0,0,0,0,0,0,0,0,0,0,0,0,
0,0,0,0,0,0,0,0,0,0,0,0,0,0,0,0,0,0,0,0,0,0,0,0,0,0,0,0,0,0,
0,0,0,0,0,0,0,0,0,0,0,0,0,0,0,0,0,0,0,0,0,0,0,0,0,0,0,0,0,0,
0,0,0,0,0,0,0,0,0,0,0,0,0,0,0,0,0,0,0,0,0,0,0,0,0,0,0,0,0,0
</data>
 </layer>
 <imagelayer id="10" name="view" offsetx="-6.98228" offsety="-19.0426">
  <image source="../map_bg/lab.png" width="1026" height="513"/>
 </imagelayer>
 <objectgroup id="3" name="objects">
  <object id="2" name="spawn-south" type="spawn" x="469.717" y="300.238" width="60.3015" height="35.5462">
   <properties>
    <property name="direction" value="south"/>
   </properties>
  </object>
  <object id="3" name="spawn-west" type="spawn" x="86.3264" y="276.117" width="53.954" height="67.2838">
   <properties>
    <property name="direction" value="west"/>
   </properties>
  </object>
  <object id="7" name="spawn-default" type="spawn" x="340.227" y="231.05" width="57.7625" height="63.4753">
   <properties>
    <property name="direction" value="default"/>
   </properties>
  </object>
  <object id="9" name="exit-to-outside" type="exit" x="473.525" y="10.7908" width="66.0143" height="61.571">
   <properties>
    <property name="direction" value="north"/>
    <property name="targetRoomId" value="outside"/>
   </properties>
  </object>
  <object id="10" name="exit-to-vault" type="exit" x="449.405" y="365.618" width="101.561" height="88.8653">
   <properties>
    <property name="direction" value="east"/>
    <property name="targetRoomId" value="vault"/>
   </properties>
  </object>
 </objectgroup>
</map>
