<?xml version="1.0" encoding="UTF-8"?>
<map version="1.10" tiledversion="1.12.1" orientation="orthogonal" renderorder="right-down" width="30" height="15" tilewidth="32" tileheight="32" infinite="0" nextlayerid="11" nextobjectid="13">
 <tileset firstgid="1" source="../tilesets/tiny-dungeon.tsx"/>
 <tileset firstgid="133" source="../tilesets/realm-tiles.tsx"/>
 <layer id="8" name="ground" width="30" height="15">
  <data encoding="csv">
49,49,134,134,134,134,134,134,134,134,134,134,134,134,134,134,1,49,49,49,134,49,49,49,49,49,49,49,49,49,
134,134,134,134,134,134,134,134,134,134,134,134,134,134,134,136,136,134,134,134,134,134,134,134,134,134,134,134,49,49,
49,134,134,134,134,134,134,134,134,134,134,134,134,134,134,136,136,134,134,134,134,134,134,134,134,134,134,134,134,49,
134,134,134,134,134,134,134,134,134,134,134,134,134,134,134,134,136,136,134,134,134,134,134,134,134,134,134,134,134,49,
134,134,135,135,138,138,135,135,137,137,135,135,138,138,134,134,136,136,136,134,134,134,134,134,134,134,134,134,49,49,
134,134,135,135,138,138,135,135,137,137,135,135,138,138,134,134,134,136,136,136,134,134,134,134,134,134,134,134,134,134,
134,134,135,135,137,137,135,135,138,138,135,135,137,137,134,134,136,136,136,136,136,136,134,134,134,134,134,134,134,49,
134,134,135,135,137,137,135,135,138,138,135,135,137,137,134,136,136,136,136,136,136,136,136,136,136,136,136,136,136,136,
136,136,136,136,136,136,136,136,136,136,136,136,136,136,136,136,136,136,136,136,136,136,136,136,136,136,136,136,136,136,
136,136,136,136,136,136,136,136,136,136,136,136,136,136,136,136,136,136,136,134,134,134,136,136,136,136,136,136,136,136,
136,136,136,136,136,136,136,136,136,136,136,136,136,136,134,134,134,134,134,134,134,134,134,134,134,134,134,134,134,27,
49,134,135,135,137,137,135,135,138,138,135,135,137,137,134,134,135,135,138,138,135,135,137,137,135,135,138,138,134,49,
134,134,135,135,137,137,135,135,138,138,135,135,137,137,134,134,135,135,138,138,135,135,137,137,135,135,138,138,134,134,
134,134,135,135,138,138,135,135,137,137,135,135,138,138,134,134,135,135,137,137,135,135,138,138,135,135,137,137,134,49,
49,49,135,135,138,138,135,135,137,137,135,135,138,138,134,134,135,135,137,137,135,135,138,138,135,135,137,137,134,49
</data>
 </layer>
 <layer id="5" name="decor" width="30" height="15">
  <data encoding="csv">
0,0,0,0,0,0,0,0,0,0,0,0,0,0,0,0,0,0,0,0,0,0,0,0,0,0,0,0,0,0,
0,0,0,0,0,0,0,0,0,0,0,0,0,0,0,0,0,0,0,0,0,0,0,0,0,0,0,0,0,0,
0,0,0,0,0,0,0,0,0,0,0,0,0,0,0,0,0,0,0,0,0,0,0,0,0,0,0,0,0,0,
0,0,0,0,0,0,0,0,0,0,0,0,0,0,0,0,0,0,0,0,0,0,0,0,0,0,0,0,0,0,
0,0,0,0,0,0,0,0,0,0,0,0,0,0,0,0,0,0,0,0,0,0,0,0,0,0,0,0,0,0,
0,0,0,0,0,0,0,0,0,0,0,0,0,0,0,0,0,0,0,0,0,0,0,0,0,0,0,0,0,0,
0,0,0,0,0,0,0,0,0,0,0,0,0,0,0,0,0,0,0,0,0,0,0,0,0,0,0,0,0,0,
0,0,0,0,0,0,0,0,0,0,0,0,0,0,0,0,0,0,0,0,0,0,0,0,0,0,0,0,0,0,
0,0,0,0,0,0,0,0,0,0,0,0,0,0,0,0,0,0,0,0,0,0,0,0,0,0,0,0,0,0,
0,0,0,0,0,0,0,0,0,0,0,0,0,0,0,0,0,0,0,0,0,0,0,0,0,0,0,0,0,0,
0,0,0,0,0,0,0,0,0,0,0,0,0,0,0,0,0,0,0,0,0,0,0,0,0,0,0,0,0,0,
0,0,0,0,0,0,0,0,0,0,0,0,0,0,0,0,0,0,0,0,0,0,0,0,0,0,0,0,0,0,
0,0,0,0,0,0,0,0,0,0,0,0,0,0,0,0,0,0,0,0,0,0,0,0,0,0,0,0,0,0,
0,0,0,0,0,0,0,0,0,0,0,0,0,0,0,0,0,0,0,0,0,0,0,0,0,0,0,0,0,0,
0,0,0,0,0,0,0,0,0,0,0,0,0,0,0,0,0,0,0,0,0,0,0,0,0,0,0,0,0,0
</data>
 </layer>
 <layer id="4" name="wall" width="30" height="15">
  <data encoding="csv">
1,14,0,0,0,0,0,0,0,0,0,0,0,0,19,0,0,19,17,3,3,3,3,3,3,3,3,3,4,1,
1,14,0,0,0,0,0,0,0,0,0,0,0,0,31,0,0,31,0,0,0,0,0,0,0,0,0,0,16,1,
1,14,0,0,0,0,0,0,0,0,0,0,0,0,0,0,0,0,0,0,0,0,0,0,0,0,0,0,16,1,
1,14,0,0,0,0,0,0,0,0,0,0,0,0,0,0,0,0,0,0,0,0,0,0,0,0,0,0,16,1,
1,14,0,0,0,0,0,0,0,0,0,0,0,0,0,0,0,0,0,0,0,0,0,0,0,0,0,0,16,1,
1,14,0,0,0,0,0,0,0,0,0,0,0,0,0,0,0,0,0,0,0,0,0,0,0,0,0,0,16,1,
1,14,0,0,0,0,0,0,0,0,0,0,0,0,0,0,0,0,0,0,0,0,0,0,0,0,0,0,17,3,
3,18,0,0,0,0,0,0,0,0,0,0,0,0,0,0,0,0,0,0,0,0,0,0,0,0,0,0,0,0,
0,0,0,0,0,0,0,0,0,0,0,0,0,0,0,0,0,0,0,0,0,0,0,0,0,0,0,0,0,0,
0,0,0,0,0,0,0,0,0,0,0,0,0,0,0,0,0,0,0,0,0,0,0,0,0,0,0,0,0,0,
0,0,0,0,0,0,0,0,0,0,0,0,0,0,0,0,0,0,0,0,0,0,0,0,0,0,0,0,5,27,
27,6,0,0,0,0,0,0,0,0,0,0,0,0,0,0,0,0,0,0,0,0,0,0,0,0,0,0,16,1,
1,14,0,0,0,0,0,0,0,0,0,0,0,0,0,0,0,0,0,0,0,0,0,0,0,0,0,0,16,1,
1,14,0,0,0,0,0,0,0,0,0,0,0,0,0,0,0,0,0,0,0,0,0,0,0,0,0,0,16,1,
1,14,0,0,0,0,0,0,0,0,0,0,0,0,0,0,0,0,0,0,0,0,0,0,0,0,0,0,16,1
</data>
 </layer>
 <imagelayer id="10" name="view" offsetx="-17.4022" offsety="-1.80023">
  <image source="../map_bg/library.png" width="1017" height="508"/>
 </imagelayer>
 <objectgroup id="3" name="objects">
  <object id="2" name="spawn-south" type="spawn" x="459.63" y="404.066" width="60.3015" height="35.5462">
   <properties>
    <property name="direction" value="south"/>
   </properties>
  </object>
  <object id="3" name="spawn-west" type="spawn" x="190.139" y="221.51" width="53.954" height="67.2838">
   <properties>
    <property name="direction" value="west"/>
   </properties>
  </object>
  <object id="4" name="spawn-east" type="spawn" x="854.619" y="196.384" width="34.9114" height="79.9788">
   <properties>
    <property name="direction" value="east"/>
   </properties>
  </object>
  <object id="7" name="spawn-default" type="spawn" x="427.078" y="248.465" width="57.7625" height="63.4753">
   <properties>
    <property name="direction" value="default"/>
   </properties>
  </object>
  <object id="9" name="exit-to-hidden-shrine" type="exit" x="438.145" y="16.1568" width="99.029" height="67.0275">
   <properties>
    <property name="direction" value="north"/>
    <property name="targetRoomId" value="hidden-shrine"/>
   </properties>
  </object>
  <object id="10" name="exit-to-teleport-alcove" type="exit" x="901.234" y="200.193" width="53.5485" height="77.9012">
   <properties>
    <property name="direction" value="east"/>
    <property name="targetRoomId" value="teleport-alcove"/>
   </properties>
  </object>
  <object id="12" name="exit-to-theatre" type="exit" x="19.6185" y="195.073" width="59.1813" height="72.8337">
   <properties>
    <property name="direction" value="west"/>
    <property name="targetRoomId" value="theatre"/>
   </properties>
  </object>
  <object id="13" x="470" y="270" width="32" height="32">
   <properties>
    <property name="npcId" value="scholar"/>
    <property name="type" value="npc"/>
   </properties>
  </object>
 </objectgroup>
</map>
