<?xml version="1.0" encoding="UTF-8"?>
<map version="1.10" tiledversion="1.12.1" orientation="orthogonal" renderorder="right-down" width="30" height="17" tilewidth="32" tileheight="32" infinite="0" nextlayerid="10" nextobjectid="13">
 <tileset firstgid="1" source="../tilesets/tiny-dungeon.tsx"/>
 <tileset firstgid="133" source="../tilesets/realm-tiles.tsx"/>
 <layer id="8" name="ground" width="30" height="17">
  <data encoding="csv">
134,134,134,134,134,134,134,134,134,134,134,134,134,134,134,134,134,134,134,134,134,134,134,134,134,134,134,134,49,49,
134,134,134,134,134,137,137,137,137,137,137,137,137,137,137,137,137,137,137,134,134,134,134,134,134,134,134,134,134,49,
134,137,137,134,134,137,137,137,137,137,137,137,137,137,137,137,137,137,137,134,134,134,134,134,134,134,134,134,134,134,
134,137,137,134,134,134,134,134,134,134,134,134,134,134,134,134,134,134,134,134,134,134,134,134,134,134,134,134,134,49,
134,137,137,134,134,134,134,134,138,138,138,138,138,138,138,138,138,134,134,134,134,134,134,134,134,134,134,134,134,134,
134,137,137,134,134,134,134,134,138,138,138,138,138,138,138,138,138,134,134,134,134,134,134,134,134,134,134,134,49,49,
134,137,137,134,134,134,134,134,138,138,138,138,138,138,138,138,138,134,134,134,134,134,134,134,134,134,134,134,49,49,
134,137,137,134,134,134,134,134,138,138,138,138,138,138,138,138,138,134,134,134,134,134,134,134,134,134,134,134,134,134,
134,137,137,134,134,134,134,134,138,138,135,136,135,135,135,138,138,134,134,134,134,134,134,134,134,134,134,134,134,134,
134,137,137,134,134,134,134,134,138,138,135,135,135,135,133,138,138,134,134,134,134,134,134,134,134,134,134,134,134,134,
134,137,137,134,134,134,134,134,138,138,138,138,138,138,138,138,138,134,134,134,134,134,134,134,134,134,134,134,49,49,
134,137,137,134,134,134,134,134,138,138,138,138,138,138,138,138,138,134,134,134,134,134,134,134,134,134,134,134,134,134,
134,137,137,134,134,134,134,134,138,138,138,138,138,138,138,138,138,134,134,134,134,134,134,134,134,134,134,134,49,134,
134,137,137,134,134,134,134,134,138,138,138,138,138,138,138,138,138,134,134,134,134,134,134,134,134,134,134,134,134,134,
134,134,134,134,134,134,134,134,134,134,134,134,134,134,134,134,134,134,134,134,134,134,134,134,134,134,134,134,134,49,
134,134,134,134,134,134,134,134,134,134,134,134,134,138,138,138,138,138,134,134,134,134,134,134,134,134,134,134,49,49,
134,134,134,134,134,134,134,134,134,134,134,134,134,138,138,138,138,138,134,134,134,134,134,134,134,134,134,134,49,49
</data>
 </layer>
 <layer id="5" name="decor" width="30" height="17">
  <data encoding="csv">
0,0,0,0,0,0,0,0,0,0,0,0,0,0,0,0,0,0,0,0,0,0,0,0,0,0,0,0,0,0,
0,0,0,0,0,0,0,0,0,0,0,0,0,0,0,0,0,0,0,0,0,0,0,0,0,0,0,0,0,0,
0,0,0,0,0,0,0,0,0,0,0,0,0,0,0,0,0,0,0,0,0,0,0,0,0,0,0,0,0,0,
0,0,0,0,0,0,0,0,0,0,0,0,0,0,0,0,0,0,0,0,0,0,0,0,0,0,0,0,0,0,
0,0,0,0,0,0,0,0,0,0,0,0,0,0,0,0,0,0,0,0,0,0,0,0,0,0,0,0,0,0,
0,0,0,0,0,0,0,0,0,0,0,0,0,0,0,0,0,0,0,0,0,0,0,0,0,0,0,0,0,0,
0,0,0,0,0,0,0,0,0,0,0,0,0,0,0,0,0,0,0,0,0,0,0,0,0,0,0,0,0,0,
0,0,0,0,0,0,0,0,0,0,0,0,0,0,0,0,0,0,0,0,0,0,0,0,0,0,0,0,0,0,
0,0,0,0,0,0,0,0,0,0,0,0,0,0,0,0,0,0,0,0,0,0,0,0,0,0,0,0,0,0,
0,0,0,0,0,0,0,0,0,0,0,0,0,0,0,0,0,0,0,0,0,0,0,0,0,0,0,0,0,0,
0,0,0,0,0,0,0,0,0,0,0,0,0,0,0,0,0,0,0,0,0,0,0,0,0,0,0,0,0,0,
0,0,0,0,0,0,0,0,0,0,0,0,0,0,0,0,0,0,0,0,0,0,0,0,0,0,0,0,0,0,
0,0,0,0,0,0,0,0,0,0,0,0,0,0,0,0,0,0,0,0,0,0,0,0,0,0,0,0,0,0,
0,0,0,0,0,0,0,0,0,0,0,0,0,0,0,0,0,0,0,0,0,0,0,0,0,0,0,0,0,0,
0,0,0,0,0,0,0,0,0,0,0,0,0,0,0,0,0,0,0,0,0,0,0,0,0,0,0,0,0,0,
0,0,0,0,0,0,0,0,0,0,0,0,0,0,0,0,0,0,0,0,0,0,0,0,0,0,0,0,0,0,
0,0,0,0,0,0,0,0,0,0,0,0,0,0,0,0,0,0,0,0,0,0,0,0,0,0,0,0,0,0
</data>
 </layer>
 <layer id="4" name="wall" width="30" height="17">
  <data encoding="csv">
0,0,0,0,0,0,0,0,0,0,0,0,0,0,0,0,0,0,0,0,0,0,0,0,0,0,0,0,16,1,
0,0,0,0,0,0,0,0,0,0,0,0,0,0,0,0,0,0,0,0,0,0,0,0,0,0,0,0,16,1,
0,0,0,0,0,0,0,0,0,0,0,0,0,0,0,0,0,0,0,0,0,0,0,0,0,0,0,0,16,1,
0,0,0,0,0,0,0,0,0,0,0,0,0,0,0,0,0,0,0,0,0,0,0,0,0,0,0,0,16,1,
0,0,0,0,0,0,0,0,0,0,0,0,0,0,0,0,0,0,0,0,0,0,0,0,0,0,0,0,16,1,
0,0,0,0,0,0,0,0,0,0,0,0,0,0,0,0,0,0,0,0,0,0,0,0,0,0,0,0,16,1,
0,0,0,0,0,0,0,0,0,0,0,0,0,0,0,0,0,0,0,0,0,0,0,0,0,0,0,0,17,3,
0,0,0,0,0,0,0,0,0,0,0,0,0,0,0,0,0,0,0,0,0,0,0,0,0,0,0,0,0,0,
0,0,0,0,0,0,0,0,0,0,0,0,0,0,0,0,0,0,0,0,0,0,0,0,0,0,0,0,0,0,
0,0,0,0,0,0,0,0,0,0,0,0,0,0,0,0,0,0,0,0,0,0,0,0,0,0,0,0,0,0,
0,0,0,0,0,0,0,0,0,0,0,0,0,0,0,0,0,0,0,0,0,0,0,0,0,0,0,0,5,27,
0,0,0,0,0,0,0,0,0,0,0,0,0,0,0,0,0,0,0,0,0,0,0,0,0,0,0,0,16,1,
0,0,0,0,0,0,0,0,0,0,0,0,0,0,0,0,0,0,0,0,0,0,0,0,0,0,0,0,16,1,
0,0,0,0,0,0,0,0,0,0,0,0,0,0,0,0,0,0,0,0,0,0,0,0,0,0,0,0,16,1,
0,0,0,0,0,0,0,0,0,0,0,0,0,0,0,0,0,0,0,0,0,0,0,0,0,0,0,0,16,1,
0,0,0,0,0,0,0,0,0,0,0,0,0,0,0,0,0,0,0,0,0,0,0,0,0,0,0,0,16,1,
0,0,0,0,0,0,0,0,0,0,0,0,0,0,0,0,0,0,0,0,0,0,0,0,0,0,0,0,16,1
</data>
 </layer>
 <objectgroup id="3" name="objects">
  <object id="3" name="spawn-west" type="spawn" x="86.3264" y="276.117" width="53.954" height="67.2838">
   <properties>
    <property name="direction" value="west"/>
   </properties>
  </object>
  <object id="7" name="spawn-default" type="spawn" x="359.27" y="253.266" width="57.7625" height="63.4753">
   <properties>
    <property name="direction" value="default"/>
   </properties>
  </object>
  <object id="10" name="exit-to-outside" type="exit" x="910.235" y="237.398" width="35.5462" height="74.9008">
   <properties>
    <property name="direction" value="east"/>
    <property name="targetRoomId" value="outside"/>
   </properties>
  </object>
 </objectgroup>
</map>
