<?xml version="1.0" encoding="UTF-8"?>
<map version="1.10" tiledversion="1.12.1" orientation="orthogonal" renderorder="right-down" width="30" height="15" tilewidth="32" tileheight="32" infinite="0" nextlayerid="12" nextobjectid="13">
 <tileset firstgid="1" source="../tilesets/tiny-dungeon.tsx"/>
 <tileset firstgid="133" source="../tilesets/realm-tiles.tsx"/>
 <layer id="8" name="ground" width="30" height="15" visible="0">
  <data encoding="csv">
49,49,49,49,49,49,49,49,49,49,49,49,49,49,49,1,1,49,49,49,49,49,49,49,49,49,49,49,49,49,
49,49,49,49,49,49,49,49,49,49,49,49,49,49,133,133,133,133,49,49,49,49,49,49,49,49,49,49,49,49,
49,49,49,49,49,49,49,49,49,49,49,49,49,49,133,133,133,133,49,49,49,49,49,49,49,49,49,49,49,49,
49,49,49,49,49,133,133,133,133,133,133,133,133,133,133,133,133,133,49,49,49,49,49,49,49,49,49,49,49,49,
49,49,49,49,49,133,133,133,133,133,133,133,133,133,133,133,133,133,133,133,133,133,133,133,133,49,49,49,49,49,
49,49,49,49,49,133,133,133,133,133,133,133,133,133,133,133,133,133,133,133,136,136,133,133,133,49,49,49,49,49,
49,49,49,49,49,133,133,133,136,136,133,133,133,133,133,133,133,133,133,133,136,136,133,133,133,49,49,49,49,49,
49,49,49,49,49,133,133,133,136,136,133,133,133,133,133,133,133,133,133,133,133,133,133,133,133,133,133,133,133,133,
133,133,133,133,133,133,133,133,133,133,133,133,133,133,133,133,133,133,133,133,133,133,133,133,133,133,133,133,133,133,
133,133,133,133,133,133,133,133,133,133,133,133,133,133,133,133,133,133,133,133,133,133,133,133,133,133,133,133,133,133,
133,133,133,133,133,133,133,133,133,133,133,133,133,133,133,133,133,133,133,133,133,133,133,133,133,133,133,133,49,49,
49,49,133,133,133,133,133,133,136,136,133,133,133,133,133,133,133,133,133,133,136,136,133,133,49,49,49,49,49,49,
49,49,49,49,133,133,133,133,136,136,133,133,133,133,133,133,133,133,133,133,136,136,133,133,49,49,49,49,49,49,
49,49,49,49,133,133,133,133,133,133,133,133,133,133,133,133,133,133,133,133,133,133,133,133,49,49,49,49,49,49,
0,0,0,0,0,0,0,0,0,0,0,0,0,0,0,0,0,0,0,0,0,0,0,0,0,0,0,0,0,0
</data>
 </layer>
 <layer id="5" name="decor" width="30" height="15" visible="0">
  <data encoding="csv">
0,0,0,0,0,0,0,0,0,0,0,0,0,0,0,0,0,0,0,0,0,0,0,0,0,0,0,0,0,0,
0,0,0,0,0,0,0,0,0,0,0,0,0,0,0,0,0,0,0,0,0,0,0,0,0,0,0,0,0,0,
0,0,0,0,0,0,0,0,0,0,0,0,0,0,0,0,0,0,0,0,0,0,0,0,0,0,0,0,0,0,
0,0,0,0,0,0,0,0,0,0,0,0,0,0,0,0,0,0,0,0,0,0,0,0,0,0,0,0,0,0,
0,0,0,0,0,0,0,0,0,0,0,0,0,0,0,0,0,0,0,0,0,0,0,0,0,0,0,0,0,0,
0,0,0,0,0,0,0,0,0,0,0,0,0,0,0,0,0,0,0,0,0,0,0,0,0,0,0,0,0,0,
0,0,0,0,0,0,0,0,0,0,0,0,0,0,0,0,0,0,0,0,0,0,0,0,0,0,0,0,0,0,
0,0,0,0,0,0,0,0,0,0,0,0,0,0,0,0,0,0,0,0,0,0,0,0,0,0,0,0,0,0,
0,0,0,0,0,0,0,0,0,0,0,0,0,0,0,0,0,0,0,0,0,0,0,0,0,0,0,0,0,0,
0,0,0,0,0,0,0,0,0,0,0,0,0,0,0,0,0,0,0,0,0,0,0,0,0,0,0,0,0,0,
0,0,0,0,0,0,0,0,0,0,0,0,0,0,0,0,0,0,0,0,0,0,0,0,0,0,0,0,0,0,
0,0,0,0,0,0,0,0,0,0,0,0,0,0,0,0,0,0,0,0,0,0,0,0,0,0,0,0,0,0,
0,0,0,0,0,0,0,0,0,0,0,0,0,0,0,0,0,0,0,0,0,0,0,0,0,0,0,0,0,0,
0,0,0,0,0,0,0,0,0,0,0,0,0,0,0,0,0,0,0,0,0,0,0,0,0,0,0,0,0,0,
0,0,0,0,0,0,0,0,0,0,0,0,0,0,0,0,0,0,0,0,0,0,0,0,0,0,0,0,0,0
</data>
 </layer>
 <layer id="4" name="wall" width="30" height="15">
  <data encoding="csv">
1,1,1,1,1,1,1,1,1,1,1,1,1,0,0,0,0,1,1,1,1,1,1,1,1,1,1,1,1,1,
1,1,1,1,1,1,1,1,1,1,1,1,1,0,0,0,0,1,1,1,1,1,1,1,1,1,1,1,1,1,
1,1,1,1,1,1,1,1,1,1,1,1,1,0,0,0,0,1,1,1,1,1,1,1,1,1,1,1,1,1,
1,0,0,0,0,0,0,0,0,0,0,0,0,0,0,0,0,0,0,0,0,0,0,0,0,0,0,0,0,1,
1,0,0,0,0,0,0,0,0,0,0,0,0,0,0,0,0,0,0,0,0,0,0,0,0,0,0,0,0,1,
1,0,0,0,0,0,0,0,0,0,0,0,0,0,0,0,0,0,0,0,0,0,0,0,0,0,0,0,0,1,
0,0,0,0,0,0,0,0,0,0,0,0,0,0,0,0,0,0,0,0,0,0,0,0,0,0,0,0,0,0,
0,0,0,0,0,0,0,0,0,0,0,0,0,0,0,0,0,0,0,0,0,0,0,0,0,0,0,0,0,0,
1,0,0,0,0,0,0,0,0,0,0,0,0,0,0,0,0,0,0,0,0,0,0,0,0,0,0,0,0,1,
1,0,0,0,0,0,0,0,0,0,0,0,0,0,0,0,0,0,0,0,0,0,0,0,0,0,0,0,0,1,
1,0,0,0,0,0,0,0,0,0,0,0,0,0,0,0,0,0,0,0,0,0,0,0,0,0,0,0,0,1,
1,0,0,0,0,0,0,0,0,0,0,0,0,0,0,0,0,0,0,0,0,0,0,0,0,0,0,0,0,1,
1,1,1,0,0,0,0,0,0,0,1,1,1,0,0,0,0,1,1,1,0,0,0,0,0,0,0,1,1,1,
1,1,1,1,1,1,1,1,1,1,1,1,1,0,0,0,0,1,1,1,1,1,1,1,1,1,1,1,1,1,
1,1,1,1,1,1,1,1,1,1,1,1,1,0,0,0,0,1,1,1,1,1,1,1,1,1,1,1,1,1
</data>
 </layer>
 <imagelayer id="11" name="view" offsetx="-12" offsety="-19">
  <image source="../map_bg/outside.jpg" width="1000" height="500"/>
 </imagelayer>
 <objectgroup id="3" name="objects">
  <object id="1" name="spawn-north" type="spawn" x="469.586" y="82.4824" width="63.4753" height="36.1809">
   <properties>
    <property name="direction" value="north"/>
   </properties>
  </object>
  <object id="2" name="spawn-south" type="spawn" x="466.33" y="358.274" width="60.3015" height="35.5462">
   <properties>
    <property name="direction" value="south"/>
   </properties>
  </object>
  <object id="3" name="spawn-west" type="spawn" x="76.8264" y="221.617" width="53.954" height="67.2838">
   <properties>
    <property name="direction" value="west"/>
   </properties>
  </object>
  <object id="4" name="spawn-east" type="spawn" x="864.737" y="199.172" width="31.4114" height="66.7288">
   <properties>
    <property name="direction" value="east"/>
   </properties>
  </object>
  <object id="7" name="spawn-default" type="spawn" x="287.937" y="212.599" width="57.7625" height="63.4753">
   <properties>
    <property name="direction" value="default"/>
   </properties>
  </object>
  <object id="9" name="exit-to-theatre" type="exit" x="443.951" y="16.4893" width="87.8902" height="50.6242">
   <properties>
    <property name="direction" value="north"/>
    <property name="targetRoomId" value="theatre"/>
   </properties>
  </object>
  <object id="10" name="exit-to-pub" type="exit" x="930.318" y="197.481" width="32.7962" height="71.1508">
   <properties>
    <property name="direction" value="east"/>
    <property name="targetRoomId" value="pub"/>
   </properties>
  </object>
  <object id="11" name="exit-to-lab" type="exit" x="446.075" y="421.245" width="78.2554" height="48.4221">
   <properties>
    <property name="direction" value="south"/>
    <property name="targetRoomId" value="lab"/>
   </properties>
  </object>
  <object id="12" name="exit-to-office" type="exit" x="-5.88297" y="199.817" width="50.2802" height="62.532">
   <properties>
    <property name="direction" value="west"/>
    <property name="targetRoomId" value="office"/>
   </properties>
  </object>
 </objectgroup>
</map>
