<?xml version="1.0" encoding="UTF-8"?>
<map version="1.10" tiledversion="1.12.1" orientation="orthogonal" renderorder="right-down" width="30" height="15" tilewidth="32" tileheight="32" infinite="0" nextlayerid="11" nextobjectid="13">
 <tileset firstgid="1" source="../tilesets/tiny-dungeon.tsx"/>
 <tileset firstgid="133" source="../tilesets/realm-tiles.tsx"/>
 <layer id="8" name="ground" width="30" height="15" visible="0">
  <data encoding="csv">
49,49,134,134,134,134,134,134,134,134,134,134,134,138,138,138,138,134,134,134,134,134,134,134,134,134,134,134,49,49,
49,49,134,134,134,137,137,137,137,137,137,138,138,138,134,134,137,137,137,137,137,137,134,134,134,134,134,134,134,49,
49,134,134,134,134,134,134,134,134,133,138,138,138,134,134,134,134,134,134,134,134,134,134,134,134,134,134,134,49,49,
49,49,134,134,134,134,134,134,134,134,138,138,134,134,135,135,134,134,134,134,134,134,134,134,134,134,134,134,134,49,
49,134,134,134,134,134,134,134,134,134,138,138,134,134,135,135,134,134,134,134,134,134,134,134,134,134,134,134,134,49,
49,134,134,134,134,134,134,134,134,134,138,138,138,138,138,138,138,134,134,134,134,134,134,134,134,134,134,134,134,49,
49,49,134,134,134,137,137,137,137,137,137,134,134,134,134,134,137,137,137,137,137,137,134,134,134,134,134,134,134,49,
49,49,134,134,134,134,134,134,134,136,134,134,134,134,134,134,134,134,136,134,134,134,134,134,134,134,134,134,134,134,
134,134,134,134,134,134,135,135,134,134,134,134,134,134,134,134,134,134,135,135,134,134,134,134,134,134,134,134,134,134,
134,134,134,134,134,134,135,135,134,134,134,134,134,134,134,134,134,134,135,135,134,134,134,134,134,134,134,134,134,134,
134,134,134,134,134,134,134,134,134,134,134,134,134,134,134,134,134,134,134,134,134,134,134,134,134,134,134,134,134,49,
49,134,134,134,134,134,135,135,134,134,134,134,134,134,134,134,134,134,135,135,134,134,134,134,134,134,134,134,134,49,
49,134,134,134,134,134,135,135,134,134,134,134,134,134,134,134,134,134,135,135,134,134,134,134,134,134,134,134,134,49,
49,49,134,134,134,134,134,134,134,134,134,134,134,134,134,134,134,134,134,134,134,134,134,134,134,134,134,134,134,49,
49,49,134,134,134,134,135,135,134,134,134,134,134,134,134,134,134,134,134,134,134,134,134,134,134,134,134,134,134,134
</data>
 </layer>
 <layer id="5" name="decor" width="30" height="15" visible="0">
  <data encoding="csv">
0,0,0,0,0,0,0,0,0,0,0,0,0,0,0,0,0,0,0,0,0,0,0,0,0,0,0,0,0,0,
0,0,0,0,0,0,0,0,0,0,0,0,0,0,0,0,0,0,0,0,0,0,0,0,0,0,0,0,0,0,
0,0,0,0,0,0,0,0,0,0,0,0,0,0,0,0,0,0,0,0,0,0,0,0,0,0,0,0,0,0,
0,0,0,0,0,0,0,0,0,0,0,0,0,0,0,0,0,0,0,0,0,0,0,0,0,0,0,0,0,0,
0,0,0,0,0,0,0,0,0,0,0,0,0,0,0,0,0,0,0,0,0,0,0,0,0,0,0,0,0,0,
0,0,0,0,0,0,0,0,0,0,0,0,0,0,0,0,0,0,0,0,0,0,0,0,0,0,0,0,0,0,
0,0,0,0,0,0,0,0,0,0,0,0,0,0,0,0,0,0,0,0,0,0,0,0,0,0,0,0,0,0,
0,0,0,0,0,0,0,0,0,0,0,0,0,0,0,0,0,0,0,0,0,0,0,0,0,0,0,0,0,0,
0,0,0,0,0,0,0,0,0,0,0,0,0,0,0,0,0,0,0,0,0,0,0,0,0,0,0,0,0,0,
0,0,0,0,0,0,0,0,0,0,0,0,0,0,0,0,0,0,0,0,0,0,0,0,0,0,0,0,0,0,
0,0,0,0,0,0,0,0,0,0,0,0,0,0,0,0,0,0,0,0,0,0,0,0,0,0,0,0,0,0,
0,0,0,0,0,0,0,0,0,0,0,0,0,0,0,0,0,0,0,0,0,0,0,0,0,0,0,0,0,0,
0,0,0,0,0,0,0,0,0,0,0,0,0,0,0,0,0,0,0,0,0,0,0,0,0,0,0,0,0,0,
0,0,0,0,0,0,0,0,0,0,0,0,0,0,0,0,0,0,0,0,0,0,0,0,0,0,0,0,0,0,
0,0,0,0,0,0,0,0,0,0,0,0,0,0,0,0,0,0,0,0,0,0,0,0,0,0,0,0,0,0
</data>
 </layer>
 <layer id="4" name="wall" width="30" height="15">
  <data encoding="csv">
1,1,1,1,1,1,1,1,1,1,1,1,1,1,1,1,1,1,1,1,1,1,1,1,1,1,1,1,1,1,
1,1,1,1,1,1,1,1,1,1,1,1,1,1,1,1,1,1,1,1,1,1,1,1,1,1,1,1,1,1,
1,1,1,1,1,1,1,1,1,1,1,1,1,1,1,1,1,1,1,1,1,1,1,1,1,1,1,1,1,1,
1,0,0,0,0,0,0,0,1,1,1,1,1,1,1,1,1,1,1,1,1,1,0,0,0,0,0,0,0,1,
1,0,0,0,0,0,0,0,1,1,1,1,1,1,1,1,1,1,1,1,1,1,0,0,0,0,0,0,0,1,
1,1,1,0,0,0,0,0,0,0,0,0,0,0,0,0,0,0,0,0,0,0,0,0,0,0,0,0,0,1,
0,0,0,0,0,0,0,0,0,0,0,0,0,0,0,0,0,0,0,0,0,0,0,0,0,0,0,0,0,0,
0,0,0,0,0,0,0,0,0,0,0,0,0,0,0,0,0,0,0,1,1,1,0,0,0,0,0,0,0,0,
1,0,0,0,0,1,1,1,1,0,0,0,0,1,1,1,0,0,0,1,1,1,0,0,0,0,0,0,0,1,
1,0,0,0,0,1,1,1,1,0,0,0,0,1,1,1,0,0,0,0,0,0,0,0,0,0,0,0,0,1,
1,0,0,0,0,1,1,1,1,0,0,0,0,0,0,0,0,0,0,0,1,1,1,1,0,0,0,0,0,1,
1,0,0,0,0,0,0,0,0,0,0,0,0,0,0,0,0,0,0,0,1,1,1,1,0,0,0,0,0,1,
1,0,0,0,0,0,0,0,0,0,0,0,1,0,0,0,0,1,0,0,0,1,0,0,0,0,0,0,0,1,
1,0,0,0,0,0,0,0,0,0,0,0,1,0,0,0,0,1,0,0,0,0,0,0,0,0,0,0,0,1,
1,1,1,1,1,1,1,1,1,1,1,1,1,0,0,0,0,1,1,1,1,1,1,1,1,1,1,1,1,1
</data>
 </layer>
 <imagelayer id="10" name="view" offsetx="-14.0094" offsety="-7.39955">
  <image source="../map_bg/pub.jpg" width="1000" height="500"/>
 </imagelayer>
 <objectgroup id="3" name="objects">
  <object id="1" name="spawn-south" type="spawn" x="434.186" y="344.545" width="63.4753" height="36.1809">
   <properties>
    <property name="direction" value="south"/>
   </properties>
  </object>
  <object id="3" name="spawn-west" type="spawn" x="97.9931" y="195.45" width="53.954" height="67.2838">
   <properties>
    <property name="direction" value="west"/>
   </properties>
  </object>
  <object id="4" name="spawn-east" type="spawn" x="821.887" y="189.519" width="51.5781" height="71.3121">
   <properties>
    <property name="direction" value="east"/>
   </properties>
  </object>
  <object id="7" name="spawn-default" type="spawn" x="325.937" y="219.933" width="57.7625" height="63.4753">
   <properties>
    <property name="direction" value="default"/>
   </properties>
  </object>
  <object id="10" name="exit-to-garden" type="exit" x="900.302" y="182.928" width="64.5462" height="74.9008">
   <properties>
    <property name="direction" value="east"/>
    <property name="targetRoomId" value="garden"/>
   </properties>
  </object>
  <object id="11" name="exit-to-cellar" type="exit" x="434.577" y="403.499" width="77.3916" height="61.9601">
   <properties>
    <property name="direction" value="south"/>
    <property name="targetRoomId" value="cellar"/>
   </properties>
  </object>
  <object id="12" name="exit-to-outside&#9;" type="exit" x="22.617" y="195.15" width="50.7802" height="59.032">
   <properties>
    <property name="direction" value="west"/>
    <property name="targetRoomId" value="outside"/>
   </properties>
  </object>
 </objectgroup>
</map>
