<?xml version="1.0" encoding="UTF-8"?>
<map version="1.10" tiledversion="1.12.1" orientation="orthogonal" renderorder="right-down" width="30" height="17" tilewidth="32" tileheight="32" infinite="0" nextlayerid="10" nextobjectid="13">
 <tileset firstgid="1" source="../tilesets/tiny-dungeon.tsx"/>
 <tileset firstgid="133" source="../tilesets/realm-tiles.tsx"/>
 <layer id="8" name="ground" width="30" height="17">
  <data encoding="csv">
134,134,134,134,134,134,134,134,134,134,134,134,134,134,134,134,134,134,134,134,134,134,134,134,134,134,134,134,49,49,
134,134,134,135,135,135,135,135,135,135,135,135,135,135,135,135,135,135,135,135,135,135,135,135,135,137,137,134,49,49,
134,134,135,135,135,135,135,135,135,135,135,135,135,135,135,135,135,135,135,135,135,135,135,136,136,137,137,134,49,49,
134,134,135,135,135,135,135,135,135,135,135,135,135,135,135,135,135,136,136,136,136,135,135,135,135,137,137,134,49,49,
134,135,135,135,135,135,135,135,135,135,135,135,135,133,135,135,135,135,135,135,135,135,135,135,135,137,137,134,49,49,
134,135,135,135,135,135,135,135,135,135,135,135,135,133,135,135,135,135,135,135,135,135,135,135,135,137,137,134,49,49,
134,135,135,135,135,135,135,135,135,135,135,135,135,135,135,135,135,135,135,135,135,135,135,135,135,137,137,134,49,49,
134,134,137,138,138,138,138,138,138,138,138,138,138,138,138,138,138,138,138,138,137,137,137,137,137,137,137,134,134,134,
134,134,137,138,138,138,138,138,138,138,138,138,138,138,138,138,138,138,138,138,137,134,134,134,134,134,134,134,134,134,
134,134,137,138,138,138,136,136,136,136,136,136,136,136,136,138,138,138,138,138,137,134,134,134,134,134,134,134,134,134,
134,134,137,138,138,138,138,138,138,138,138,138,138,138,138,138,138,138,49,49,137,49,49,49,49,49,134,134,49,49,
134,134,137,138,138,138,136,136,136,136,136,136,136,136,136,138,138,138,49,49,49,49,49,49,49,49,49,49,49,49,
134,134,137,138,138,138,138,138,138,138,138,138,138,138,138,138,138,138,49,49,49,49,49,49,49,49,49,49,49,49,
134,134,137,138,138,138,138,138,138,138,138,138,138,138,138,138,138,138,49,49,49,49,49,49,49,49,49,49,49,49,
134,134,137,137,137,137,137,137,137,137,137,137,137,137,137,137,137,137,49,49,49,49,49,49,49,49,49,49,49,49,
134,134,134,134,134,134,134,134,134,134,134,134,134,134,134,134,134,1,1,1,49,49,49,49,49,49,49,49,49,49,
49,49,49,49,49,49,49,49,49,49,49,49,49,49,1,1,1,49,49,49,49,49,49,49,49,49,49,49,49,49
</data>
 </layer>
 <layer id="5" name="decor" width="30" height="17">
  <data encoding="csv">
0,0,0,0,0,0,0,0,0,0,0,0,0,0,0,0,0,0,0,0,0,0,0,0,0,0,0,0,0,0,
0,0,0,0,0,0,0,0,0,0,0,0,0,0,0,0,0,0,0,0,0,0,0,0,0,0,0,0,0,0,
0,0,0,0,0,0,0,0,0,0,0,0,0,0,0,0,0,0,0,0,0,0,0,0,0,0,0,0,0,0,
0,0,0,0,0,0,0,0,0,0,0,0,0,0,0,0,0,0,0,0,0,0,0,0,0,0,0,0,0,0,
0,0,0,0,0,0,0,0,0,0,0,0,0,0,0,0,0,0,0,0,0,0,0,0,0,0,0,0,0,0,
0,0,0,0,0,0,0,0,0,0,0,0,0,0,0,0,0,0,0,0,0,0,0,0,0,0,0,0,0,0,
0,0,0,0,0,0,0,0,0,0,0,0,0,0,0,0,0,0,0,0,0,0,0,0,0,0,0,0,0,0,
0,0,0,0,0,0,0,0,0,0,0,0,0,0,0,0,0,0,0,0,0,0,0,0,0,0,0,0,0,0,
0,0,0,0,0,0,0,0,0,0,0,0,0,0,0,0,0,0,0,0,0,0,0,0,0,0,0,0,0,0,
0,0,0,0,0,0,0,0,0,0,0,0,0,0,0,0,0,0,0,0,0,0,0,0,0,0,0,0,0,0,
0,0,0,0,0,0,0,0,0,0,0,0,0,0,0,0,0,0,0,0,0,0,0,0,0,0,0,0,0,0,
0,0,0,0,0,0,0,0,0,0,0,0,0,0,0,0,0,0,0,0,0,0,0,0,0,0,0,0,0,0,
0,0,0,0,0,0,0,0,0,0,0,0,0,0,0,0,0,0,0,0,0,0,0,0,0,0,0,0,0,0,
0,0,0,0,0,0,0,0,0,0,0,0,0,0,0,0,0,0,0,0,0,0,0,0,0,0,0,0,0,0,
0,0,0,0,0,0,0,0,0,0,0,0,0,0,0,0,0,0,0,0,0,0,0,0,0,0,0,0,0,0,
0,0,0,0,0,0,0,0,0,0,0,0,0,0,0,0,0,0,0,0,0,0,0,0,0,0,0,0,0,0,
0,0,0,0,0,0,0,0,0,0,0,0,0,0,0,0,0,0,0,0,0,0,0,0,0,0,0,0,0,0
</data>
 </layer>
 <layer id="4" name="wall" width="30" height="17">
  <data encoding="csv">
0,0,0,0,0,0,0,0,0,0,0,0,0,0,0,0,0,0,0,0,0,0,0,0,0,0,0,0,16,1,
0,0,0,0,0,0,0,0,0,0,0,0,0,0,0,0,0,0,0,0,0,0,0,0,0,0,0,0,16,1,
0,0,0,0,0,0,0,0,0,0,0,0,0,0,0,0,0,0,0,0,0,0,0,0,0,0,0,0,16,1,
0,0,0,0,0,0,0,0,0,0,0,0,0,0,0,0,0,0,0,0,0,0,0,0,0,0,0,0,16,1,
0,0,0,0,0,0,0,0,0,0,0,0,0,0,0,0,0,0,0,0,0,0,0,0,0,0,0,0,16,1,
0,0,0,0,0,0,0,0,0,0,0,0,0,0,0,0,0,0,0,0,0,0,0,0,0,0,0,0,16,1,
0,0,0,0,0,0,0,0,0,0,0,0,0,0,0,0,0,0,0,0,0,0,0,0,0,0,0,0,17,3,
0,0,0,0,0,0,0,0,0,0,0,0,0,0,0,0,0,0,0,0,0,0,0,0,0,0,0,0,0,0,
0,0,0,0,0,0,0,0,0,0,0,0,0,0,0,0,0,0,0,0,0,0,0,0,0,0,0,0,0,0,
0,0,0,0,0,0,0,0,0,0,0,0,0,0,0,0,0,0,0,0,0,0,0,0,0,0,0,0,0,0,
0,0,0,0,0,0,0,0,0,0,0,0,0,0,0,0,0,0,5,27,27,27,27,27,27,27,27,27,27,27,
0,0,0,0,0,0,0,0,0,0,0,0,0,0,0,0,0,0,16,1,1,1,1,1,1,1,1,1,1,1,
0,0,0,0,0,0,0,0,0,0,0,0,0,0,0,0,0,0,16,1,1,1,1,1,1,1,1,1,1,1,
0,0,0,0,0,0,0,0,0,0,0,0,0,0,0,0,0,0,16,1,1,1,1,1,1,1,1,1,1,1,
0,0,0,0,0,0,0,0,0,0,0,0,0,0,0,0,0,0,16,1,1,1,1,1,1,1,1,1,1,1,
0,0,0,0,0,0,0,0,0,0,0,0,0,7,0,0,0,7,16,0,1,1,1,1,1,1,1,1,1,1,
41,41,41,41,41,41,41,41,41,41,41,41,41,19,0,0,0,19,41,41,41,41,41,41,41,41,41,41,41,41
</data>
 </layer>
 <objectgroup id="3" name="objects">
  <object id="1" name="spawn-north" type="spawn" x="485.586" y="96.4824" width="63.4753" height="36.1809">
   <properties>
    <property name="direction" value="north"/>
   </properties>
  </object>
  <object id="3" name="spawn-west" type="spawn" x="86.3264" y="276.117" width="53.954" height="67.2838">
   <properties>
    <property name="direction" value="west"/>
   </properties>
  </object>
  <object id="7" name="spawn-default" type="spawn" x="359.27" y="253.266" width="57.7625" height="63.4753">
   <properties>
    <property name="direction" value="default"/>
   </properties>
  </object>
  <object id="10" name="exit-to-library" type="exit" x="910.235" y="237.398" width="35.5462" height="74.9008">
   <properties>
    <property name="direction" value="east"/>
    <property name="targetRoomId" value="library"/>
   </properties>
  </object>
  <object id="11" name="exit-to-outside" type="exit" x="465.908" y="512.245" width="54.5887" height="24.7554">
   <properties>
    <property name="direction" value="south"/>
    <property name="targetRoomId" value="outside"/>
   </properties>
  </object>
 </objectgroup>
</map>
