<?xml version="1.0" encoding="UTF-8"?>
<map version="1.10" tiledversion="1.12.1" orientation="orthogonal" renderorder="right-down" width="30" height="15" tilewidth="32" tileheight="32" infinite="0" nextlayerid="11" nextobjectid="14">
 <tileset firstgid="1" source="../tilesets/tiny-dungeon.tsx"/>
 <tileset firstgid="133" source="../tilesets/realm-tiles.tsx"/>
 <layer id="8" name="ground" width="30" height="15" visible="0">
  <data encoding="csv">
134,134,134,134,134,134,49,49,49,49,49,49,49,49,49,1,1,49,49,49,49,49,49,49,49,49,49,49,49,49,
134,134,134,134,134,134,134,134,134,134,134,134,134,134,134,134,134,134,134,134,134,134,134,134,134,134,134,134,134,134,
134,134,134,134,134,134,134,134,134,134,134,134,138,138,138,138,138,138,138,134,134,134,134,134,134,134,134,134,134,134,
134,134,134,134,134,134,134,134,134,134,134,138,138,138,138,138,138,138,134,134,134,134,134,134,134,134,134,134,134,134,
134,134,134,134,134,134,134,134,134,134,134,138,138,138,138,138,138,138,134,134,134,134,134,134,134,137,137,134,134,134,
134,134,134,134,134,134,134,134,134,134,134,138,138,138,138,138,138,138,134,134,134,134,134,134,134,137,137,134,134,134,
134,137,137,137,134,134,134,134,134,134,138,138,138,138,138,138,138,134,134,134,135,135,134,134,134,137,137,134,134,134,
134,137,137,137,134,135,135,134,134,134,138,138,138,138,138,138,134,134,134,134,135,135,134,134,134,137,137,134,134,134,
134,137,137,137,134,135,135,134,134,134,138,138,138,138,138,134,134,134,134,134,135,135,134,134,134,137,137,134,134,134,
134,137,137,137,134,135,135,134,134,138,138,138,138,138,138,134,134,134,134,134,135,135,134,134,134,137,137,134,134,134,
134,137,137,137,134,135,135,134,134,138,138,138,138,138,138,134,134,134,134,134,135,135,134,134,134,137,137,134,134,134,
134,134,134,134,134,134,134,134,134,138,138,138,138,138,134,134,134,134,134,134,134,134,134,134,134,134,134,134,134,134,
134,134,134,134,134,134,134,134,138,138,136,136,136,136,138,134,134,134,134,134,134,134,134,134,134,134,134,134,134,134,
134,134,134,134,134,133,134,134,138,138,138,138,138,138,138,138,134,133,134,134,134,134,134,134,134,134,134,134,134,134,
134,134,134,134,134,134,134,138,138,138,138,138,138,138,138,138,138,134,134,134,134,134,134,134,134,134,134,134,134,134
</data>
 </layer>
 <layer id="5" name="decor" width="30" height="15" visible="0">
  <data encoding="csv">
0,0,0,0,0,0,0,0,0,0,0,0,0,0,0,0,0,0,0,0,0,0,0,0,0,0,0,0,0,0,
0,0,0,0,0,0,0,0,0,0,0,0,0,0,0,0,0,0,0,0,0,0,0,0,0,0,0,0,0,0,
0,0,0,0,0,0,0,0,0,0,0,0,0,0,0,0,0,0,0,0,0,0,0,0,0,0,0,0,0,0,
0,0,0,0,0,0,0,0,0,0,0,0,0,0,0,0,0,0,0,0,0,0,0,0,0,0,0,0,0,0,
0,0,0,0,0,0,0,0,0,0,0,0,0,0,0,0,0,0,0,0,0,0,0,0,0,0,0,0,0,0,
0,0,0,0,0,0,0,0,0,0,0,0,0,0,0,0,0,0,0,0,0,0,0,0,0,0,0,0,0,0,
0,0,0,0,0,0,0,0,0,0,0,0,0,0,0,0,0,0,0,0,0,0,0,0,0,0,0,0,0,0,
0,0,0,0,0,0,0,0,0,0,0,0,0,0,0,0,0,0,0,0,0,0,0,0,0,0,0,0,0,0,
0,0,0,0,0,0,0,0,0,0,0,0,0,0,0,0,0,0,0,0,0,0,0,0,0,0,0,0,0,0,
0,0,0,0,0,0,0,0,0,0,0,0,0,0,0,0,0,0,0,0,0,0,0,0,0,0,0,0,0,0,
0,0,0,0,0,0,0,0,0,0,0,0,0,0,0,0,0,0,0,0,0,0,0,0,0,0,0,0,0,0,
0,0,0,0,0,0,0,0,0,0,0,0,0,0,0,0,0,0,0,0,0,0,0,0,0,0,0,0,0,0,
0,0,0,0,0,0,0,0,0,0,0,0,0,0,0,0,0,0,0,0,0,0,0,0,0,0,0,0,0,0,
0,0,0,0,0,0,0,0,0,0,0,0,0,0,0,0,0,0,0,0,0,0,0,0,0,0,0,0,0,0,
0,0,0,0,0,0,0,0,0,0,0,0,0,0,0,0,0,0,0,0,0,0,0,0,0,0,0,0,0,0
</data>
 </layer>
 <layer id="4" name="wall" width="30" height="15">
  <data encoding="csv">
1,1,1,1,1,1,1,1,1,1,1,1,1,0,0,0,0,1,1,1,1,1,1,1,1,1,1,1,1,1,
1,1,1,1,1,1,1,1,1,1,1,1,1,0,0,0,0,31,0,0,0,0,0,0,0,0,0,0,0,1,
1,1,1,1,1,1,1,1,1,1,1,1,1,0,0,0,0,0,0,0,0,0,0,0,0,0,0,0,0,1,
1,1,1,1,1,1,1,1,1,1,1,1,1,0,0,0,0,0,0,0,0,0,0,0,0,0,0,0,0,1,
1,0,0,0,0,0,0,0,0,0,0,0,0,0,0,0,0,0,0,0,0,0,0,0,0,0,0,0,0,1,
1,0,0,0,0,0,0,0,0,0,0,0,0,0,0,0,0,0,0,0,0,0,0,0,0,0,0,0,0,1,
1,0,0,0,0,1,0,0,0,1,0,0,0,0,0,0,0,0,0,0,1,0,0,0,1,0,0,0,0,1,
1,0,0,0,0,1,0,0,0,1,0,0,0,0,0,0,0,0,0,0,1,0,0,0,1,0,0,0,0,1,
1,0,0,0,0,1,0,0,0,1,0,0,0,0,0,0,0,0,0,0,1,0,0,0,1,0,0,0,0,1,
1,0,0,0,0,0,0,0,0,0,0,0,0,0,0,0,0,0,0,0,0,0,0,0,0,0,0,0,0,1,
1,0,0,0,0,0,0,0,0,0,0,0,0,0,0,0,0,0,0,0,0,0,0,0,0,0,0,0,0,1,
1,0,0,0,0,0,0,0,0,0,0,0,1,0,0,0,0,1,0,0,0,0,0,0,0,0,0,0,0,1,
1,0,0,0,0,0,0,0,0,0,0,0,0,0,0,0,0,0,0,0,0,0,0,0,0,0,0,0,0,1,
1,0,0,0,0,0,0,0,0,0,0,0,0,0,0,0,0,0,0,0,0,0,0,0,0,0,0,0,0,1,
1,1,1,1,1,1,1,1,1,1,1,1,1,1,1,1,1,1,1,1,1,1,1,1,1,1,1,1,1,1
</data>
 </layer>
 <imagelayer id="10" name="view" offsetx="-13.3333" offsety="-3.33333">
  <image source="../map_bg/thronehall.jpg" width="1000" height="500"/>
 </imagelayer>
 <objectgroup id="3" name="objects">
  <object id="2" name="spawn-north" type="spawn" x="456.963" y="107.87" width="60.3015" height="35.5462">
   <properties>
    <property name="direction" value="north"/>
   </properties>
  </object>
  <object id="7" name="spawn-default" type="spawn" x="361.134" y="180.995" width="57.7625" height="63.4753">
   <properties>
    <property name="direction" value="default"/>
   </properties>
  </object>
  <object id="13" x="459.467" y="314.329" width="57.0958" height="82.142">
   <properties>
    <property name="name" value="throne"/>
    <property name="type" value="act-item"/>
   </properties>
  </object>
  <object id="9" name="exit-to-guard-room" type="exit" x="448.216" y="31.294" width="81.0911" height="51.8244">
   <properties>
    <property name="direction" value="north"/>
    <property name="targetRoomId" value="guard-room"/>
   </properties>
  </object>
 </objectgroup>
</map>
