<?xml version="1.0" encoding="UTF-8"?>
<map version="1.10" tiledversion="1.12.1" orientation="orthogonal" renderorder="right-down" width="30" height="17" tilewidth="32" tileheight="32" infinite="0" nextlayerid="10" nextobjectid="14">
 <tileset firstgid="1" source="../tilesets/tiny-dungeon.tsx"/>
 <tileset firstgid="133" source="../tilesets/realm-tiles.tsx"/>
 <layer id="8" name="ground" width="30" height="17">
  <data encoding="csv">
49,49,49,49,49,49,49,49,49,49,49,49,49,49,49,134,134,49,49,49,49,49,49,49,49,49,49,49,49,49,
49,49,49,49,49,49,1,1,1,49,49,49,49,49,49,134,134,134,49,49,49,49,49,49,49,49,49,49,49,49,
134,134,134,134,134,134,134,134,134,134,134,134,134,134,134,134,134,134,134,134,134,134,134,134,134,134,134,134,134,134,
134,134,134,134,134,134,134,134,134,134,134,134,134,134,134,134,134,134,134,134,134,134,134,134,134,134,134,134,134,134,
134,135,135,134,134,134,134,134,134,134,134,134,134,134,134,134,134,134,134,134,134,134,134,134,134,135,135,134,134,134,
134,135,135,134,134,134,134,134,134,134,134,134,134,134,134,134,134,134,134,134,134,134,134,134,134,135,135,134,134,134,
134,134,134,134,134,134,134,134,134,134,134,134,134,134,134,134,134,134,134,134,134,134,134,134,134,134,134,134,134,134,
134,134,134,134,134,134,134,134,134,134,134,138,138,138,138,138,138,134,134,134,134,134,134,134,134,134,134,134,134,134,
134,134,134,137,137,134,134,134,134,134,134,138,136,136,136,136,138,134,134,134,134,134,137,137,134,134,134,134,134,134,
134,134,134,137,137,134,134,134,134,134,134,138,133,133,133,136,138,134,134,134,134,134,137,137,134,134,134,134,134,134,
134,134,134,137,137,134,134,134,134,134,134,138,136,136,136,136,138,134,134,134,134,134,134,134,134,134,134,134,134,134,
134,134,134,134,134,134,134,134,134,134,134,138,138,138,138,138,138,134,134,134,134,134,134,134,134,134,134,134,134,134,
134,134,134,134,134,134,134,134,134,134,134,134,134,134,134,134,134,134,134,134,134,134,134,134,134,134,134,134,134,134,
134,134,134,134,134,137,137,137,134,134,134,134,134,134,134,134,134,134,134,134,134,134,134,134,134,135,135,135,134,134,
134,134,134,134,134,137,137,137,134,134,134,134,134,134,134,134,134,134,137,137,137,134,134,134,134,135,135,135,134,134,
134,134,134,134,134,134,134,134,134,134,134,134,134,134,134,134,134,134,134,134,134,134,134,134,134,134,134,134,134,134,
134,134,134,134,134,134,134,134,134,134,134,134,134,134,134,134,134,134,134,134,134,134,134,134,134,134,134,134,134,134
</data>
 </layer>
 <layer id="5" name="decor" width="30" height="17">
  <data encoding="csv">
0,0,0,0,0,0,0,0,0,0,0,0,0,0,0,0,0,0,0,0,0,0,0,0,0,0,0,0,0,0,
0,0,0,0,0,0,0,0,0,0,0,0,0,0,0,0,0,0,0,0,0,0,0,0,0,0,0,0,0,0,
0,0,0,0,0,0,0,0,0,0,0,0,0,0,0,0,0,0,0,0,0,0,0,0,0,0,0,0,0,0,
0,0,0,0,0,0,0,0,0,0,0,0,0,0,0,0,0,0,0,0,0,0,0,0,0,0,0,0,0,0,
0,0,0,0,0,0,0,0,0,0,0,0,0,0,0,0,0,0,0,0,0,0,0,0,0,0,0,0,0,0,
0,0,0,0,0,0,0,0,0,0,0,0,0,0,0,0,0,0,0,0,0,0,0,0,0,0,0,0,0,0,
0,0,0,0,0,0,0,0,0,0,0,0,0,0,0,0,0,0,0,0,0,0,0,0,0,0,0,0,0,0,
0,0,0,0,0,0,0,0,0,0,0,0,0,0,0,0,0,0,0,0,0,0,0,0,0,0,0,0,0,0,
0,0,0,0,0,0,0,0,0,0,0,0,0,0,0,0,0,0,0,0,0,0,0,0,0,0,0,0,0,0,
0,0,0,0,0,0,0,0,0,0,0,0,0,0,0,0,0,0,0,0,0,0,0,0,0,0,0,0,0,0,
0,0,0,0,0,0,0,0,0,0,0,0,0,0,0,0,0,0,0,0,0,0,0,0,0,0,0,0,0,0,
0,0,0,0,0,0,0,0,0,0,0,0,0,0,0,0,0,0,0,0,0,0,0,0,0,0,0,0,0,0,
0,0,0,0,0,0,0,0,0,0,0,0,0,0,0,0,0,0,0,0,0,0,0,0,0,0,0,0,0,0,
0,0,0,0,0,0,0,0,0,0,0,0,0,0,0,0,0,0,0,0,0,0,0,0,0,0,0,0,0,0,
0,0,0,0,0,0,0,0,0,0,0,0,0,0,0,0,0,0,0,0,0,0,0,0,0,0,0,0,0,0,
0,0,0,0,0,0,0,0,0,0,0,0,0,0,0,0,0,0,0,0,0,0,0,0,0,0,0,0,0,0,
0,0,0,0,0,0,0,0,0,0,0,0,0,0,0,0,0,0,0,0,0,0,0,0,0,0,0,0,0,0
</data>
 </layer>
 <layer id="4" name="wall" width="30" height="17">
  <data encoding="csv">
16,1,1,1,1,1,1,1,1,1,1,1,1,1,14,0,0,16,1,1,1,1,1,1,1,1,1,1,1,14,
17,3,3,3,3,3,3,3,3,3,3,3,3,3,18,0,0,17,3,3,3,3,3,3,3,3,3,3,3,18,
0,0,0,0,0,0,0,0,0,0,0,0,0,0,0,0,0,0,0,0,0,0,0,0,0,0,0,0,0,0,
0,0,0,0,0,0,0,0,0,0,0,0,0,0,0,0,0,0,0,0,0,0,0,0,0,0,0,0,0,0,
0,0,0,0,0,0,0,0,0,0,0,0,0,0,0,0,0,0,0,0,0,0,0,0,0,0,0,0,0,0,
0,0,0,0,0,0,0,0,0,0,0,0,0,0,0,0,0,0,0,0,0,0,0,0,0,0,0,0,0,0,
0,0,0,0,0,0,0,0,0,0,0,0,0,0,0,0,0,0,0,0,0,0,0,0,0,0,0,0,0,0,
0,0,0,0,0,0,0,0,0,0,0,0,0,0,0,0,0,0,0,0,0,0,0,0,0,0,0,0,0,0,
0,0,0,0,0,0,0,0,0,0,0,0,0,0,0,0,0,0,0,0,0,0,0,0,0,0,0,0,0,0,
0,0,0,0,0,0,0,0,0,0,0,0,0,0,0,0,0,0,0,0,0,0,0,0,0,0,0,0,0,0,
0,0,0,0,0,0,0,0,0,0,0,0,0,0,0,0,0,0,0,0,0,0,0,0,0,0,0,0,0,0,
0,0,0,0,0,0,0,0,0,0,0,0,0,0,0,0,0,0,0,0,0,0,0,0,0,0,0,0,0,0,
0,0,0,0,0,0,0,0,0,0,0,0,0,0,0,0,0,0,0,0,0,0,0,0,0,0,0,0,0,0,
0,0,0,0,0,0,0,0,0,0,0,0,0,0,0,0,0,0,0,0,0,0,0,0,0,0,0,0,0,0,
0,0,0,0,0,0,0,0,0,0,0,0,0,0,0,0,0,0,0,0,0,0,0,0,0,0,0,0,0,0,
0,0,0,0,0,0,0,0,0,0,0,0,0,0,0,0,0,0,0,0,0,0,0,0,0,0,0,0,0,0,
0,0,0,0,0,0,0,0,0,0,0,0,0,0,0,0,0,0,0,0,0,0,0,0,0,0,0,0,0,0
</data>
 </layer>
 <objectgroup id="3" name="objects">
  <object id="4" name="spawn-east" type="spawn" x="858.82" y="233.589" width="34.9114" height="79.9788">
   <properties>
    <property name="direction" value="east"/>
   </properties>
  </object>
  <object id="7" name="spawn-default" type="spawn" x="359.27" y="253.266" width="57.7625" height="63.4753">
   <properties>
    <property name="direction" value="default"/>
   </properties>
  </object>
  <object id="12" name="exit-to-lab" type="exit" x="488.277" y="11.4504" width="50.7802" height="41.6298">
   <properties>
    <property name="direction" value="west"/>
    <property name="targetRoomId" value="lab"/>
   </properties>
  </object>
 </objectgroup>
</map>
